vendor/shopware/storefront/Resources/app/storefront/dist/assets/icon/default/bookmark.svg

<svg xmlns="http://www.w3.org/2000/svg" width="24" height="24" viewBox="0 0 24 24">
  <path fill="#758CA3" fill-rule="evenodd" d="M6,2 L6,20.4700647 L10.3345827,17.5770385 C11.3428846,16.9040687 12.6571154,16.9040687 13.6654173,17.5770385 L18,20.4700647 L18,2 L6,2 Z M5,-3.76593559e-15 L19,-3.76593559e-15 C19.5522847,-2.89515861e-15 20,0.44771525 20,1 L20,22.3397671 C20,22.8920519 19.5522847,23.3397671 19,23.3397671 C18.8023953,23.3397671 18.6092201,23.2812228 18.4448609,23.1715247 L12.5551391,19.2405536 C12.2190385,19.0162303 11.7809615,19.0162303 11.4448609,19.2405536 L5.55513909,23.1715247 C5.09577209,23.4781195 4.47483732,23.3542732 4.16824247,22.8949062 C4.05854437,22.730547 4,22.5373718 4,22.3397671 L4,1 C4,0.44771525 4.44771525,-3.45125946e-15 5,-3.76593559e-15 Z"/>
</svg>

<svg xmlns="http://www.w3.org/2000/svg" width="24" height="24" viewBox="0 0 24 24"><path fill="#758CA3" fill-rule="evenodd" d="M6 2v18.47l4.3346-2.893a3 3 0 0 1 3.3308 0L18 20.47V2H6zM5 0h14c.5523 0 1 .4477 1 1v21.3398c0 .5523-.4477 1-1 1a1 1 0 0 1-.5551-.1683l-5.8898-3.931a1 1 0 0 0-1.1102 0l-5.8898 3.931c-.4593.3066-1.0803.1828-1.3869-.2766A1 1 0 0 1 4 22.3398V1c0-.5523.4477-1 1-1z"/></svg>
